X: 2
T: Boys From Wexford, The
Z: ceolachan
S: https://thesession.org/tunes/3826#setting22657
R: barndance
M: 4/4
L: 1/8
K: Dmaj
(3ABc |d3 e d>cB<A | a3 b a2 g2 | f2 de fe dc | Bc/B/ Bc/B/ A2 AB/c/ |
d>c de dc BA | za- ab a2 g2 | f>e de fe f^g | a6 ||
A2 |Bc/B/ G2 dc B/c/d/b/ | ab/a/ g2 fd A/B/d/a/ | ga/g/ fg/f/ ef/e/ de/d/ | B>c Bc AB/A/ AB/c/ |
d>c de dc BA | za- ab a2 g2 | f2 e2 d2 c2 | d6 |]
